azure-patterns/svg-lock-blue.svg

<svg xmlns="http://www.w3.org/2000/svg" viewBox="0 0 39 48">
                                
                            
  <path fill-rule="evenodd" clip-rule="evenodd" d="M20.2879 4.4811C20.0254 4.45485 19.7592 4.45485 19.5005 4.45485L19.5117 4.4436C16.7269 4.4436 14.0562 5.54985 12.0871 7.519C10.1179 9.4881 9.0117 12.1588 9.0117 14.9436V25.875H4.51172V14.9436C4.51172 10.9653 6.09205 7.15005 8.9051 4.337C11.4101 1.832 14.7099 0.304502 18.2117 0H20.6275C28.5015 0.56353 34.5004 7.34305 34.5117 15.2473V25.875H30.0004V15.2473C30.0004 9.6036 25.7404 4.87485 20.2879 4.4811Z" fill="#0078D4"></path>
  <path d="M38.9963 48H0V19.5H39L38.9963 48Z" fill="#0078D4"></path>
  <path d="M15 31.4024V31.4999C15 33.9583 16.9929 35.9512 19.4513 35.9512H19.5487C22.0071 35.9512 24 33.9583 24 31.4999V31.4024C24 28.9441 22.0071 26.9512 19.5487 26.9512H19.4513C16.9929 26.9512 15 28.9441 15 31.4024Z" fill="#50E6FF"></path>
  <path d="M19.5187 31.5H19.4813C18.249 31.5 17.25 32.499 17.25 33.7313V39.7687C17.25 41.001 18.249 42 19.4813 42H19.5187C20.751 42 21.75 41.001 21.75 39.7687V33.7313C21.75 32.499 20.751 31.5 19.5187 31.5Z" fill="#50E6FF"></path>
</svg>

<svg xmlns="http://www.w3.org/2000/svg" viewBox="0 0 39 48"><path fill-rule="evenodd" clip-rule="evenodd" d="M20.288 4.481c-.263-.026-.529-.026-.788-.026l.012-.011a10.5 10.5 0 0 0-10.5 10.5v10.931h-4.5V14.944A15 15 0 0 1 18.212 0h2.416C28.5.564 34.5 7.343 34.511 15.247v10.628H30V15.247c0-5.643-4.26-10.372-9.712-10.766z" fill="#0078D4"/><path d="M38.996 48H0V19.5h39L38.996 48z" fill="#0078D4"/><path d="M15 31.402v.098a4.451 4.451 0 0 0 4.451 4.451h.098A4.451 4.451 0 0 0 24 31.5v-.098a4.451 4.451 0 0 0-4.451-4.45h-.098A4.451 4.451 0 0 0 15 31.401z" fill="#50E6FF"/><path d="M19.519 31.5h-.038a2.231 2.231 0 0 0-2.231 2.231v6.038C17.25 41 18.249 42 19.481 42h.038a2.231 2.231 0 0 0 2.231-2.231V33.73a2.231 2.231 0 0 0-2.231-2.231z" fill="#50E6FF"/></svg>
